X: 100251
M: C|
L: 1/8
K: D
(uFG) |\
a3(a af).d.e | (fd).b.d fdd2 | g3(a ge).c.e | (gB)bB fee2 |
(fB) (aB) (bB) (aB) | gefd edBd | Acde fdec | dBAF D2 :|


